assets/icons/static_dynamic_events/autocross.svg

<svg fill="none" height="50" viewBox="0 0 50 50" width="50" xmlns="http://www.w3.org/2000/svg"><g fill="#525252"><path d="m25.0001 0c-13.7851 0-25.0001 11.2149-25.0001 24.9999 0 13.7851 11.215 24.9999 25.0001 24.9999 13.7849 0 24.9999-11.2148 24.9999-24.9999 0-13.785-11.2152-24.9999-24.9999-24.9999zm0 42.756c-9.8066 0-17.75625-7.9495-17.75625-17.7561s7.94965-17.75605 17.75625-17.75605c9.8062 0 17.756 7.94945 17.756 17.75605s-7.95 17.7561-17.756 17.7561z"/><path d="m25.0001 9.5426c-8.5234 0-15.4575 6.9341-15.4575 15.4573 0 8.5233 6.9343 15.4574 15.4575 15.4574 8.5233 0 15.4574-6.9341 15.4574-15.4574 0-8.5232-6.9343-15.4573-15.4574-15.4573zm13.4778 14.4718h-7.5c-.1532-.9478-.5276-1.822-1.0676-2.5692l5.2948-5.2948c1.8587 2.1404 3.0554 4.8677 3.2728 7.864zm-12.508-12.4937c2.9945.2136 5.7209 1.4057 7.8625 3.2591l-5.2936 5.2939c-.7473-.5399-1.6212-.9141-2.5689-1.0673zm-1.9398 0v7.4855c-.9476.1532-1.8218.5274-2.569 1.0675l-5.2938-5.2937c2.1416-1.8534 4.8683-3.0457 7.8628-3.2593zm-9.2357 4.6299 5.295 5.2948c-.54.747-.9143 1.6212-1.0675 2.5688h-7.5c.2175-2.9961 1.4142-5.7232 3.2725-7.8636zm-3.2746 9.8034h7.5023c.153.9476.5275 1.8218 1.0675 2.569l-5.3096 5.3096c-1.8567-2.1455-3.0499-4.878-3.2602-7.8786zm12.5103 12.5251c-3.0025-.2141-5.7354-1.412-7.8797-3.2738l5.3107-5.3107c.7472.54 1.6214.9142 2.569 1.0674zm0-9.5125v.0142c-.4186-.1018-.8115-.2672-1.1694-.486l.0093-.0093c-.5599-.3414-1.0302-.8117-1.3716-1.3717l-.009.009c-.2188-.3579-.3842-.7506-.486-1.1692h.0139c-.0756-.3113-.12-.635-.12-.9698 0-.3347.0446-.6584.12-.9698h-.0139c.1018-.4184.267-.8111.486-1.169l.009.009c.3414-.5598.8119-1.0303 1.3716-1.3715l-.0093-.0092c.3579-.2189.7508-.3845 1.1694-.486v.0141c.3116-.0756.6351-.1202.97-.1202.335 0 .6585.0446.97.1202v-.0141c.4186.1017.8113.2669 1.169.4858l-.0092.0092c.5601.3412 1.0303.8117 1.3717 1.3715l.0091-.009c.219.3579.3844.7508.4862 1.1694h-.014c.0756.3114.12.6351.12.9698s-.0446.6585-.12.9698h.014c-.1018.4186-.267.8115-.4862 1.1694l-.0091-.009c-.3414.5598-.8118 1.0301-1.3717 1.3715l.0092.0091c-.3577.2188-.7504.3842-1.169.486v-.0142c-.3115.0756-.635.1202-.97.1202-.3349 0-.6584-.0444-.97-.1202zm1.9398 9.5125v-7.5171c.9477-.1532 1.8216-.5274 2.5689-1.0672l5.3105 5.3105c-2.1441 1.8618-4.877 3.0597-7.8794 3.2738zm9.2499-4.6465-5.3093-5.3094c.54-.7472.9142-1.6214 1.0676-2.5692h7.5022c-.2106 3.0006-1.4035 5.7331-3.2605 7.8786z"/></g></svg>

<svg width="50" height="50" viewBox="0 0 50 50" fill="none" xmlns="http://www.w3.org/2000/svg">
<path d="M25.0001 0C11.215 0 0 11.2149 0 24.9999C0 38.785 11.215 49.9998 25.0001 49.9998C38.785 49.9998 50 38.785 50 24.9999C50 11.2149 38.7848 0 25.0001 0ZM25.0001 42.756C15.1935 42.756 7.24385 34.8065 7.24385 24.9999C7.24385 15.1933 15.1935 7.24385 25.0001 7.24385C34.8063 7.24385 42.7561 15.1933 42.7561 24.9999C42.7561 34.8065 34.8061 42.756 25.0001 42.756Z" fill="#525252"/>
<path d="M25.0001 9.5426C16.4767 9.5426 9.5426 16.4767 9.5426 24.9999C9.5426 33.5232 16.4769 40.4573 25.0001 40.4573C33.5234 40.4573 40.4575 33.5232 40.4575 24.9999C40.4575 16.4767 33.5232 9.5426 25.0001 9.5426ZM38.4779 24.0144H30.9779C30.8247 23.0666 30.4503 22.1924 29.9103 21.4452L35.2051 16.1504C37.0638 18.2908 38.2605 21.0181 38.4779 24.0144ZM25.9699 11.5207C28.9644 11.7343 31.6908 12.9264 33.8324 14.7798L28.5388 20.0737C27.7915 19.5338 26.9176 19.1596 25.9699 19.0064V11.5207ZM24.0301 11.5207V19.0062C23.0825 19.1594 22.2083 19.5336 21.4611 20.0737L16.1673 14.78C18.3089 12.9266 21.0356 11.7343 24.0301 11.5207ZM14.7944 16.1506L20.0894 21.4454C19.5494 22.1924 19.1751 23.0666 19.0219 24.0142H11.5219C11.7394 21.0181 12.9361 18.291 14.7944 16.1506ZM11.5198 25.954H19.0221C19.1751 26.9016 19.5496 27.7758 20.0896 28.523L14.78 33.8326C12.9233 31.6871 11.7301 28.9546 11.5198 25.954ZM24.0301 38.4791C21.0276 38.265 18.2947 37.0671 16.1504 35.2053L21.4611 29.8946C22.2083 30.4346 23.0825 30.8088 24.0301 30.962V38.4791ZM24.0301 28.9666V28.9808C23.6115 28.879 23.2186 28.7136 22.8607 28.4948L22.87 28.4855C22.3101 28.1441 21.8398 27.6738 21.4984 27.1138L21.4894 27.1228C21.2706 26.7649 21.1052 26.3722 21.0034 25.9536H21.0173C20.9417 25.6423 20.8973 25.3186 20.8973 24.9838C20.8973 24.6491 20.9419 24.3254 21.0173 24.014H21.0034C21.1052 23.5956 21.2704 23.2029 21.4894 22.845L21.4984 22.854C21.8398 22.2942 22.3103 21.8237 22.87 21.4825L22.8607 21.4733C23.2186 21.2544 23.6115 21.0888 24.0301 20.9873V21.0014C24.3417 20.9258 24.6652 20.8812 25.0001 20.8812C25.3351 20.8812 25.6586 20.9258 25.9701 21.0014V20.9873C26.3887 21.089 26.7814 21.2542 27.1391 21.4731L27.1299 21.4823C27.69 21.8235 28.1602 22.294 28.5016 22.8538L28.5107 22.8448C28.7297 23.2027 28.8951 23.5956 28.9969 24.0142H28.9829C29.0585 24.3256 29.1029 24.6493 29.1029 24.984C29.1029 25.3187 29.0583 25.6425 28.9829 25.9538H28.9969C28.8951 26.3724 28.7299 26.7653 28.5107 27.1232L28.5016 27.1142C28.1602 27.674 27.6898 28.1443 27.1299 28.4857L27.1391 28.4948C26.7814 28.7136 26.3887 28.879 25.9701 28.9808V28.9666C25.6586 29.0422 25.3351 29.0868 25.0001 29.0868C24.6652 29.0868 24.3417 29.0424 24.0301 28.9666ZM25.9699 38.4791V30.962C26.9176 30.8088 27.7915 30.4346 28.5388 29.8948L33.8493 35.2053C31.7052 37.0671 28.9723 38.265 25.9699 38.4791ZM35.2198 33.8326L29.9105 28.5232C30.4505 27.776 30.8247 26.9018 30.9781 25.954H38.4803C38.2697 28.9546 37.0768 31.6871 35.2198 33.8326Z" fill="#525252"/>
</svg>
